X: 24475
T: Lucozade, The
R: reel
M: 4/4
K: Eminor
|:~E3F GFGA|B2eB dBAc|BEED EFGA|BFAF GFED|
~E3F GFGA|B2eB dBAc|BEED EFGA|1 BFAF E2D2:|2 BFAF E2A2||
|:BABd ~e3f|gfed edBA|BABd e2B2|ABAG FED2|
~E3F GFGA|BeeB dBAc|BEED EFGA|1 BFAF E2A2:|2 BFAF E2D2||

